X:1
T:Our Festive Song
T:Our Festive Song
T:William Howard Doane
T:Frances Jane (Fanny) Crosby, 1877
T:Public Domain Courtesy of the Cyber Hymnal™
T:Public Domain Courtesy of the Cyber Hymnal™
C:William Howard Doane
Z:Public Domain
Z:Courtesy of the Cyber Hymnal™
%%score ( 1 2 ) ( 3 4 )
L:1/8
Q:1/4=95
M:4/4
K:G
V:1 treble 
V:2 treble 
V:3 bass 
V:4 bass 
V:1
 [B,D] | [B,D][B,G] [DB]>[CA] [B,G]3 D | [CE][EG] [EG]>[CE] [B,D]3 [B,D] | %3
w: 1.~We|wel- come with de- light A-|no- ther hap- py day, Our|
w: 2.~Cold|win- ter flies a- way, The|blush- ing, fair- y spring Comes|
w: 3.~The|straight and nar- row path O|may we ear- ly find, And|
 [B,D][DG][DG][DA] [GB]3 G | [GB][Gd] [Gd]>[GB] [FA]3 D | D[DG] [GB]>[DA] [DG]3 [DF] | %6
w: hearts like mer- ry bells Ring|out the sil- ver lay; We|catch the ro- sy beams Re-|
w: trip- ping o’er the lees, While|birds are on the wing; And|now, a mer- ry throng, We|
w: try to serve the Lord With|heart, and soul, and mind; O|what a hap- py day, And|
 [CE][EG] [EG]>[CE] [B,D]3 [B,D] | [CE][DF][DG][DA] [EB]G!fermata![Gc][GB] | %8
w: flect- ed from the eye Of|Him whose won- ders fill the earth, Whose|
w: come as glad as they; Our|ban- ners wav- ing in the air, We|
w: one that ne’er shall end, In|that bright world where an- gels sing, We|
 [GB][EA][DG][DF] [DG]3 ||"^Refrain" G | [GB][Bd] [Bd]>[GB] [Gd]3 [GB] | %11
w: glo- ry fills the sky.|||
w: hail our fes- tive day.|A-|no- ther year has gone, A-|
w: all with Him may spend!|||
 [FA][Ac] [Ac]>[^GB] [ce]3 [FA] | [GB][Gd] [Gd]>[Gd] [Ge][Gd][Gd][GB] | [GB][FA]G[GB] [FA]3 D | %14
w: |||
w: no- ther year be- gun; To|our Re- deem- er glo- ry be For|all His love for me. We|
w: |||
 D[DG] [GB]>[DA] [DG]3 [DF] | [CE][EG] [EG]>[CE] [B,D]3 [B,D] | %16
w: ||
w: thank His ho- ly name For|all His ten- der care, We|
w: ||
 [CE][DF][DG][DA] [EB]G!fermata![Gc][GB] | [GB][EA][DG][DF] [DG]3 |] %18
w: ||
w: praise Him for the Sun- day School, And|faith- ful teach- ers there.|
w: ||
V:2
 x | x7 D | x8 | x7 G | x7 D | D x7 | x8 | x5 G x2 | x7 || G | x8 | x8 | x8 | x2 G x3 D x | D x7 | %15
 x8 | x5 G x2 | x7 |] %18
V:3
 G, | G,G, G,>G, G,3 [B,,G,] | [C,G,][C,C] [C,C]>[C,G,] [G,,G,]3 [G,,G,] | %3
 [G,,G,][G,B,][G,B,][G,C] [G,D]3 [G,B,] | [G,D][G,B,] [G,B,]>[G,D] [D,D]3 [G,B,] | %5
 [G,B,][G,B,] [G,D]>[G,C] [G,B,]3 [B,,G,] | [C,G,][C,C] [C,C]>[C,G,] [G,,G,]3 [G,,G,] | %7
 [C,G,][A,,C][B,,B,][D,F,] G,[G,B,]!fermata![C,E][G,D] | [G,D][C,C][D,B,][D,A,] [G,B,]3 || [G,B,] | %10
 [G,D][G,B,] [G,B,]>[G,D] [G,B,]3 [G,D] | [D,D][D,D] [D,D]>[D,D] [D,D]3 [D,D] | %12
 [G,D][G,B,] [G,B,]>[G,B,] [G,C][G,B,][G,B,][G,D] | [G,D][D,D][B,,D][G,,D] [D,D]3 [G,B,] | %14
 [G,B,][G,B,] [G,D]>[G,C] [G,B,]3 [B,,G,] | [C,G,][C,C] [C,C]>[C,G,] [G,,G,]3 [G,,G,] | %16
 [C,G,][A,,C][B,,B,][D,F,] G,[G,B,][C,E][G,D] | [G,D][C,C][D,B,][D,A,] [G,B,]3 |] %18
V:4
 G, | G,G, G,>G, G,3 x | x8 | x8 | x8 | x8 | x8 | x4 G, x3 | x7 || x | x8 | x8 | x8 | x8 | x8 | %15
 x8 | x4 G, x3 | x7 |] %18

